!!!COM: Schubert, Franz
!!!CNT: Deutscher
!!!TXO: Deutsch
!!!LYR: Friedrich Rochlitz
!!!OTL: "Alinde"
!!!OPS: Op. 81
!!!ONM: No. 1
!!!ODT: 1827/
!!NB: Vocal melody only encoded.
!!NB: Original key
**kern	**silbe
*staff1	*
*clefG2	*
*k[f#]	*
*M6/8	*
*MM[Massig]	*
=6	=6
4r	.
8r	.
4r	.
{8b	{Die
=7	=7
4dd	Son-
8b	-ne
gq	sinkt
aq	|
8g	|
8f#	|
8g	in's
=8	=8
8b	tie-
8g	|
8d	-fe
4B}	Meer,}
8r	.
=9	=9
4r	.
{8d	{da
8.d	woll-
16d	-te
8d	sie
=10	=10
8d	kom-
8g}	-men.}
8r	.
4r	.
{8b	{Ge-
=11	=11
4dd	-ru-
8b	-hig
8g	trabt
8f#	|
8g	der
=12	=12
8.b	Schrit-
16g	-ter
8d	ein-
4B}	-her,}
8r	.
=13	=13
4r	.
{8d	{mir
4e-	ist's
8e-	be-
=14	=14
8d	-klom-
8g}	-men.}
8r	.
4r	.
8r	.
=15	=15
4r	.
{8g	{Hast,
8cc	Schnit-
8g	-ter,
8g	mein
=16	=16
8cc	Lieb-
8g	-chen
16g	nicht
16g	ge-
8cc	-seh'n?
8g}	|}
8r	.
=17	=17
4r	.
8r	.
4r	.
{8b	{A-
=18	=18
[4.cc	-lin-
8cc]	|
8a	-de!
8cc	A-
=19	=19
4.b	-lin-
4ee}	-de!}
8r	.
=20	=20
4r	.
8r	.
4r	.
{8b	{"Zu
=21	=21
8cc	Weib
8a	|
8f#	und
8.d	Kin-
16e	|
8d	-dern
=22	=22
8b	muss
8g	|
8d	ich
4B}	gehn,}
{8d	{kann
=23	=23
4e	nicht
8e	nach
4f#	an-
8f#	-dern
=24	=24
8g	Dir-
8dd	|
8a	-nen
4b}	seh'n;}
8r	.
=25	=25
4r	.
8r	.
4r	.
{8g	{sie
=26	=26
8.g	war-
16a	-ten
8b	mein
8a	un-
8g	-ter
8e	der
=27	=27
4.d	Lin-
4B}	-de,}
{8g	{sie
=28	=28
8.g	war-
16e-	-ten
8e-	mein
8en	un-
8e	-ter
8cc	der
=29	=29
[4b	Lin-
16b]	|
16a	|
4g}	-de."}
8r	.
=30	=30
2.r	.
=31	=31
2.r	.
=32	=32
2.r	.
=33	=33
4r	.
8r	.
4r	.
{8b	{Der
=34	=34
4dd	Mond
8b	be-
8g	-tritt
8f#	|
8g	die
=35	=35
8b	Him-
8g	-mels-
8d	|
4B}	-bahn,}
8r	.
=36	=36
4r	.
{8d	{noch
8.d	will
16d	sie
8d	nicht
=37	=37
8d	kom-
8g}	-men.}
8r	.
4r	.
{8b	{Dort
=38	=38
4dd	legt
8b	der
8.g	Fi-
16f#	-scher
8g	das
=39	=39
8b	Fahr-
8g	|
8d	-zeug
4B}	an,}
8r	.
=40	=40
4r	.
{8d	{mir
4e-	ist's
8e-	be-
=41	=41
8d	-klom-
8g}	-men.}
8r	.
4r	.
8r	.
=42	=42
4r	.
{8g	{Hast,
8cc	Fi-
8g	-scher,
8g	mein
=43	=43
8cc	Lieb-
8g	-chen
16g	nicht
16g	ge-
8cc	-seh'n?
8g}	|}
8r	.
=44	=44
4r	.
8r	.
4r	.
{8b	{A-
=45	=45
[4.b	-lin-
8.b]	|
16cc#	-de!
8b	A-
=46	=46
4.b	-lin-
4ee}	-de!}
8r	.
=47	=47
4r	.
8r	.
4r	.
{8b	{"Muss
=48	=48
8cc	su-
8a	|
8f#	-chen,
8.d	wie
16e	mir
8d	due
=49	=49
8b	Reu-
8g	|
8d	-sen
4B}	stehn,}
{8d	{hab
=50	=50
4e	nim-
8e	-mer
4f#	Zeit
8f#	nach
=51	=51
8.g	Jung-
16dd	-fern
8a	zu
4b}	gehn,}
8r	.
=52	=52
4r	.
8r	.
4r	.
{8g	{schau,
=53	=53
4g	welch
16a	ei-
16b	-ner
8a	Fang
8g	|
8e	ich
=54	=54
4.d	fin-
4B}	-de,}
{8B	{schau,
=55	=55
4B	welch
16B	ei-
16B	-nen
8.c	Fang
16d	|
8e	ich
=56	=56
4.d	fin-
4g}	-de."
8r	.
=57	=57
2.r	.
=58	=58
2.r	.
=59	=59
2.r	.
=60	=60
4r	.
8r	.
4r	.
{8b	{Die
=61	=61
4dd	lich-
8b	-ten
8.g	Ster-
16f#	|
8g	-ne
=62	=62
8B	ziehn
8d	|
8g	her-
4b}	-auf,}
8r	.
=63	=63
4r	.
{8d	{noch
8.d	will
16d	sie
8d	nicht
=64	=64
8d	kom-
8g}	-men}
8r	.
4r	.
{8b	{Dort
=65	=65
4dd	eilt
8b	der
8.g	Ja2-
16f#	-ger
8g	in
=66	=66
8.B	ru2s-
16d	-ti-
8g	-gem
4b}	Lauf,}
8r	.
=67	=67
4r	.
{8d	{mir
4e-	ist's
8e-	be-
=68	=68
8d	-klom-
8g}	-men.}
8r	.
4r	.
8r	.
=69	=69
4r	.
{8g	{Hast,
8cc	Ja2-
8g	-ger,
8g	mein
=70	=70
8cc	Lieb-
8g	-chen
16g	nicht
16g	ge-
8cc	-seh'n?
8g}	|}
8r	.
=71	=71
4r	.
8r	.
4r	.
{8b	{A-
=72	=72
[4.cc	-lin-
8cc]	|
8a	-de!
8cc	A-
=73	=73
4.b	-lin-
4ee}	-de!}
8r	.
=74	=74
4r	.
8r	.
4r	.
{8b	{"Muss
=75	=75
8cc	nach
8a	|
8f#	dem
8.d	bra2un-
16e	-li-
8d	-chen
=76	=76
8b	Reh-
8g	|
8d	-bock
4B}	gehn,}
{8d	{hab'
=77	=77
4e	nim-
8e	-mer
4f#	Lust
8f#	nach
=78	=78
8.g	Ma2-
16dd	-deln
8a	zu
4b}	sehn,}
8r	.
=79	=79
4r	.
8r	.
4r	.
{8g	{dort
=80	=80
8.g	schleicht
16a	der
8b	im
8a	A-
8g	|
8e	-bend
=81	=81
4.d	win-
4B}	-de,}
{8g	{dort
=82	=82
8.g	schleicht
16e-	er
8e-	im
8.en	A-
16d	|
8c	-bend-
=83	=83
4.d	-win-
4G}	-de."}
8r	.
=84	=84
2.r	.
=85	=85
2.r	.
=86	=86
2.r	.
=87	=87
4r	.
8r	.
4r	.
{8b	{In
=88	=88
4dd	schwar-
8b	-zer
8g	Nacht
8f#	|
8g	steht
=89	=89
8b	hier
8g	|
8d	der
4B}	Hain,}
8r	.
=90	=90
4r	.
{8d	{noch
8.d	will
16d	sie
8d	nicht
=91	=91
8d	kom-
8g}	-men.}
8r	.
4r	.
{8b	{Von
=92	=92
8dd	al-
8dd	-len
8b	Le-
8.g	-bend'
16f#	|
8g	-gen
=93	=93
8.b	irr'
16g	ich
8d	al-
4B}	-lein}
8r	.
=94	=94
4r	.
8r	.
{8.e-	{bang'
16e-	und
8e-	be-
=95	=95
8d	-klom-
8g}	-men.}
8r	.
4r	.
8r	.
=96	=96
4r	.
8r	.
4r	.
{8b	{Dir
=97	=97
4cc	E-
8g	-cho
8.g	darf
16a	ich
8b	mein
=98	=98
8cc	Leid
8g	|
8b	ge-
8cc	-stehn:
8g}	|}
8r	.
=99	=99
4r	.
8r	.
4r	.
{8b	{A-
=100	=100
[4.cc#	-lin-
8cc#]	|
8a	-de!
8cc#	A-
=101	=101
4.b	-lin-
4ee}	-de!}
8r	.
=102	=102
4r	.
8r	.
4r	.
{8b	{"A-
=103	=103
4.b	-lin-
4ee}	-de"}
8r	.
=104	=104
4r	.
8r	.
4r	.
{8b	{liess
=105	=105
8cc	E-
8a	|
8f#	-cho
8.d	lei-
16e	-se
8d	her-
=106	=106
8b	-u2-
8g	|
8d	-ber-
4B}	-wehn;}
8r	.
=107	=107
4r	.
8r	.
4r	.
{8d	{da
=108	=108
8.e	sah
16e	ich
8e	sie
4f#	mir
8f#	zur
=109	=109
8g	Sei-
8dd	|
8a	-te
4b}	stehn:}
8r	.
=110	=110
4r	.
8r	.
4r	.
{8g	{"Du
=111	=111
8.g	such-
16a	-test
8b	so
8a	treu,
8g	|
8cc	nun
=112	=112
[4b	fin-
16b]	|
16a	|
4g}	-de!}
{8g	{du
=113	=113
8.g	such-
16e-	-test
8e-	so
8e-	treu,
8en	|
8ee	nun
=114	=114
[4.dd	fin-
4dd]	|
8f#	|
=115	=115
4g}	-de!"}
8r	.
4r	.
8r	.
==	==
*-	*-